X:1
T:Title
%%score { ( 1 2 4 ) | ( 3 5 ) }
L:1/8
M:6/8
K:Ab
V:1 treble nm="Grand Piano"
V:2 treble 
V:4 treble 
V:3 bass 
V:5 bass 
V:1
 z3 z2[Q:1/4=100] [Cc] | [Cc-]3 c3 | d3 .A3 | [Cc]6 | .F3 z2 [Cc][K:bass] | [Cc]6 | d6 | [C-c]6 | %8
 C6 |[M:4/4] G2 G>A B2 E2 | z4 A2 z2 | [A,=DF]2 [A,DF]>[G,DG] [DA]2 [Dc]2 | B4 d4 | %13
 [Ec]2 [Ec]>[DB] [CA]2 [_GA]2 | z4 F4 | E2 c>d c<B E<B |[M:3/4] A6 |] %17
V:2
 z3 z z z/ [D,D]/ | E>=DE [A,A]2 E/E/ | F>=EF [Dd]2- [DFd] | E=D>E [A,A]2 G/G/ | %4
 [=D=d]-[D-Gd-][DAd] [_DB_d]2 z/[K:bass] [D,D]/ | E>=DE A2 E/E/ | F>=EF B2 A/F/ | E>=DE A2 [E,E] | %8
 [Bd]3 [Ac]3 |[M:4/4] x8 | [CE]4 C4 | x8 | x8 | x8 | [FA]4 z2 _C2 | x8 |[M:3/4] C2 D2 C2 |] %17
V:3
 z3 z2 .[A,,C,] | E,>=D,E, z2 E, | [D,D]->[D,-=E,D-][D,-F,D] [D,F,A,]2 [D,F,] | %3
 A,,-[A,,-=D,]>[A,,E,] z2 G, | F,G,A, [E,B,]2 .[A,,C,] | E,>D,E, [A,,A,]2 E, | %6
 [D,D]->[D,-=E,D-][D,-F,D-] [D,-F,B,D-]2 [D,-A,D-]/[D,F,D]/ | A,,->[A,,-=D,][A,,-E,] [A,,A,=D]3 | %8
 [G,B,D]3 [A,,E,A,]3 |[M:4/4] [E,B,D]2 [E,B,D]>[E,A,D] [E,G,D]2 [E,G,D]2 | [A,,A,]4 z2 G2 | %11
 B,,2 B,,>B,, [B,,F,]2 [B,,A,]2 | [E,G,E]4 F4 | [A,,A,]2 [A,,A,]>[A,,A,] [A,,A,]2 [C,A,]2 | %14
 z4 [D,D]2 z2 | [E,A,C]2 [E,A,E]>[E,A,F] [E,G,E]<[E,G,D] [E,G,D]<[E,G,D] |[M:3/4] E,2 z2 z2 |] %17
V:4
 x6 | z3 C3 | x6 | x6 | x11/2[K:bass] x/ | x6 | x6 | x6 | x6 |[M:4/4] x8 | x8 | x8 | x8 | x8 | x8 | %15
 x8 |[M:3/4] x6 |] %17
V:5
 x6 | A,,3 A,,3 | .F,3 z3 | .E,3 A,,3 | B,,3 z3 | A,,3 z3 | .F,3 z3 | .E,3 z3 | x6 |[M:4/4] x8 | %10
 z4 [A,,A,]4 | x8 | x8 | x8 | [D,A,]4 A,2- [=D,A,]2 | x8 |[M:3/4] A,,2- [A,,-F,]2 [A,,E,]2 |] %17

